assets/awscontainers/original.svg

<svg height="74" viewBox="0 0 74 74" width="74" xmlns="http://www.w3.org/2000/svg"><g fill="none" fill-rule="evenodd"><path d="m5 5h64v64h-64z" fill="#ed7100"/><path d="m1 1h72v72h-72z" stroke="#879196" stroke-width="2"/><path d="m4 38h36v-14h-36zm-2 4h40v-2h-40zm40-18v14h1a1 1 0 0 1 1 1v4a1 1 0 0 1 -1 1h-42a1 1 0 0 1 -1-1v-4a1 1 0 0 1 1-1h1v-14h-1a1 1 0 0 1 -1-1v-4c0-.357.198-.656.48-.833l-.009-.015 15.2-9.5 1.06 1.696-12.243 7.652h24.512v2h-27v2h40v-2h-11v-2h8.512l-12.243-7.652 1.06-1.696 15.2 9.5-.009.015c.282.177.48.476.48.833v4a1 1 0 0 1 -1 1zm-20-14c1.93 0 3.5-1.57 3.5-3.5h-2c0 .827-.673 1.5-1.5 1.5s-1.5-.673-1.5-1.5.673-1.5 1.5-1.5a1 1 0 0 0 1-1v-4h-2v3.146a3.505 3.505 0 0 0 -2.5 3.354c0 1.93 1.57 3.5 3.5 3.5m-16 26h2v-10h-2zm5 0h2v-10h-2zm5 0h2v-10h-2zm20 0h2v-10h-2zm-5 0h2v-10h-2zm-5 0h2v-10h-2zm-5 0h2v-10h-2z" fill="#fff" transform="translate(15 14)"/></g></svg>

<svg xmlns="http://www.w3.org/2000/svg" width="74" height="74" viewBox="0 0 74 74"><title>Icon-Architecture-Category/48/Containers_48</title><g id="Icon-Architecture-Category/48/Containers_48" fill="none" fill-rule="evenodd" stroke="none" stroke-width="1"><path id="Rectangle" fill="#ed7100" d="M5 5h64v64H5z"/><path id="#879196-Border-Copy-7" stroke="#879196" stroke-width="2" d="M1 1h72v72H1z"/><g id="Icon-Category/48/Containers_48" fill="#fff" transform="translate(15 14)"><path id="Fill-3" d="M4 38h36V24H4zm-2 4h40v-2H2zm40-18v14h1a1 1 0 0 1 1 1v4a1 1 0 0 1-1 1H1a1 1 0 0 1-1-1v-4a1 1 0 0 1 1-1h1V24H1a1 1 0 0 1-1-1v-4c0-.357.198-.656.48-.833l-.009-.015 15.2-9.5 1.06 1.696L4.488 18H29v2H2v2h40v-2H31v-2h8.512l-12.243-7.652 1.06-1.696 15.2 9.5-.009.015c.282.177.48.476.48.833v4a1 1 0 0 1-1 1zM22 10c1.93 0 3.5-1.57 3.5-3.5h-2c0 .827-.673 1.5-1.5 1.5s-1.5-.673-1.5-1.5S21.173 5 22 5a1 1 0 0 0 1-1V0h-2v3.146A3.505 3.505 0 0 0 18.5 6.5c0 1.93 1.57 3.5 3.5 3.5M6 36h2V26H6zm5 0h2V26h-2zm5 0h2V26h-2zm20 0h2V26h-2zm-5 0h2V26h-2zm-5 0h2V26h-2zm-5 0h2V26h-2z"/></g></g></svg>
